symbols/web/car_rental/materialsymbolsoutlined/car_rental_wght300fill1_40px.svg

<svg xmlns="http://www.w3.org/2000/svg" height="40" width="40"><path d="M13.667 11.625q-1.917 0-3.25-1.333Q9.083 8.958 9.083 7q0-1.917 1.334-3.25 1.333-1.333 3.25-1.333 1.625 0 2.854 1.041Q17.75 4.5 18.208 6.042h12.709v2.083H29.25v3.5h-2.083v-3.5h-8.959q-.458 1.542-1.708 2.521-1.25.979-2.833.979Zm0-2.083q1.041 0 1.791-.75T16.208 7q0-1.042-.75-1.771-.75-.729-1.791-.729-1.042 0-1.771.729-.729.729-.729 1.771 0 1.042.729 1.792t1.771.75Zm.291 19.083q.542 0 .917-.375t.375-.917q0-.5-.375-.875t-.917-.375q-.541 0-.896.375-.354.375-.354.917 0 .5.375.875t.875.375Zm12.084 0q.541 0 .896-.375.354-.375.354-.917 0-.5-.375-.875t-.875-.375q-.542 0-.917.375t-.375.917q0 .5.375.875t.917.375ZM9.167 24.167l2.625-7.584q.166-.458.541-.75.375-.291.834-.291h13.666q.459 0 .834.291.375.292.541.75l2.625 7.584v10.5q0 .375-.25.625t-.625.25h-.333q-.375 0-.625-.25t-.25-.625v-2.625h-17.5v2.625q0 .375-.25.625t-.625.25h-.333q-.375 0-.625-.25t-.25-.625Zm2.708-1.5h16.292l-1.75-5.042H13.583Z"/></svg>

<svg xmlns="http://www.w3.org/2000/svg" height="40" width="40"><path d="M13.667 11.625Q11.75 11.625 10.417 10.292Q9.083 8.958 9.083 7Q9.083 5.083 10.417 3.75Q11.75 2.417 13.667 2.417Q15.292 2.417 16.521 3.458Q17.75 4.5 18.208 6.042H30.917V8.125H29.25V11.625H27.167V8.125H18.208Q17.75 9.667 16.5 10.646Q15.25 11.625 13.667 11.625ZM13.667 9.542Q14.708 9.542 15.458 8.792Q16.208 8.042 16.208 7Q16.208 5.958 15.458 5.229Q14.708 4.5 13.667 4.5Q12.625 4.5 11.896 5.229Q11.167 5.958 11.167 7Q11.167 8.042 11.896 8.792Q12.625 9.542 13.667 9.542ZM13.958 28.625Q14.5 28.625 14.875 28.25Q15.25 27.875 15.25 27.333Q15.25 26.833 14.875 26.458Q14.5 26.083 13.958 26.083Q13.417 26.083 13.062 26.458Q12.708 26.833 12.708 27.375Q12.708 27.875 13.083 28.25Q13.458 28.625 13.958 28.625ZM26.042 28.625Q26.583 28.625 26.938 28.25Q27.292 27.875 27.292 27.333Q27.292 26.833 26.917 26.458Q26.542 26.083 26.042 26.083Q25.5 26.083 25.125 26.458Q24.75 26.833 24.75 27.375Q24.75 27.875 25.125 28.25Q25.5 28.625 26.042 28.625ZM9.167 24.167 11.792 16.583Q11.958 16.125 12.333 15.833Q12.708 15.542 13.167 15.542H26.833Q27.292 15.542 27.667 15.833Q28.042 16.125 28.208 16.583L30.833 24.167V34.667Q30.833 35.042 30.583 35.292Q30.333 35.542 29.958 35.542H29.625Q29.25 35.542 29 35.292Q28.75 35.042 28.75 34.667V32.042H11.25V34.667Q11.25 35.042 11 35.292Q10.75 35.542 10.375 35.542H10.042Q9.667 35.542 9.417 35.292Q9.167 35.042 9.167 34.667ZM11.875 22.667H28.167L26.417 17.625H13.583Z"/></svg>
